!!!OTL: Graf und Nonne (Die Nonne) Es welken alle Blaetter,
!!!ARE: Europa, Mitteleuropa, Deutschland (BRD), Niedersachsen, Hildesheim, Mehle
!!!YOR: 8, S. 98
!!    1945 aufgezeichnet
!!!SCT: Q0155l
!!!YEM: Copyright 1995, estate of Helmut Schaffrath.
**kern
*ICvox
*Ivox
*M4/4
*k[f#]
*G:
{4d
=1
4.g
8d
4B
4d
=2
4g
4b
4b}
{4dd
=3
4.a
8g
4f#
4g
=4
2a
4r}
{4d
=5
4.g
8d
4B
4d
=6
4g
4b
4b}
{4dd
=7
4.a
8g
4f#
4g
=8
2a
4r}
{8g
8a
=9
4.b
8b
4b
4b
=10
4b
4dd
4dd}
{8cc
8b
=11
4.a
8b
4cc
4cc
=12
4cc
4ee
4dd}
{4cc
=13
4.b
8a
4b
4cc
=14
2dd}
{2ee
=15
4.dd
8b
4cc
4dd
=16
2b
4r}
==
!!!AGN: Ballade, Standesunterschied, vergebliche Werbung, Liebe, Klage
!!!ONB: ESAC (Essen Associative Code) Database: BALLADE
!!!AMT: simple quadruple
!!!AIN: vox
!!!EED: Helmut Schaffrath
!!!EEV: 1.0
*-
